X:18789
T:William Taylor's Table Top Hornpipe
M:4/4
L:1/8
Q:130
C:Dave Shepherd
S:Variation by Jo Downie
N:Play this really slow and sexy
K:Gm
G2 G2 GABG|ABAG F2 D2|d2-d2 cdcB|AGFG ABcA|!
G2 G2 GABG|ABAG F2 D2|dcBA GBAF|GBAF G4:|!
dBGB d2 d2|cAFA c4|BAGF G2 GB|AGFG ABcA|!
dBGB d2 d2|cAFA c4|BAGF GBAF|GBAF G4:|!
